X: 4096
T: BLUE BELLS
R: Strathspey.
%R: strathspey
B: James Kerr "Merry Melodies" v.4 p.13 #96
Z: 2016 John Chambers <jc:trillian.mit.edu>
N: The 1st strain should probably be repeated.
M: C
L: 1/16
K: G
ud2 |\
gg3 f3e d4 (efg2) | BB3 c3A G6 d2 |\
gg3 f3e d4 (efg2) | BB3 c3A G6 |:\
d2 |\
B3G Bd3 g4 e3g | f3d fed^c d4 e3f |\
gg3 f3e d4 (efg2) | BB3 c3A G6 :|

%%sep 1 1 500
%%sep 1 1 500

